X:1
T:My own dear colleen dhas
M:C
L:1/8
R:Air
B:Joyce - Old Irish Folk Music and Songs (1909, No, 296)
Z:AK/Fiddler's Companion
K:Emin
GA|B2e2 dBAG|E2E2 D2 GA|B2 AG E2E2|E4 zFGA|
B2e2 dB AG|E2E2 D2 GA|B2 AG E2E2|E4 z2 EF||
G2E2G2 AB|d2B2B2 AB|d2 ef e2e2|e3 z/E/ G2A2|
B2 e2 dB AG|E2E2 D2 GA|B2 AG E2E2|E4 z2||

